X:115
T:Tatter Jack Walsh
S:The session at The Golden Ace. Jenny, with Jim & Kate Smith  2/2/16
R:Reel
L:1/8
K:Dmix
f3 d3 | cAB c2e | dcA GFG | Add efg |
fef ded | cAB c2e | dcA GFG | Ad^c d3 :|
|: dfa afd | dfa afd | g3 ged | cde g2g |
afd ded | cAB c2e | dcA GFG | Ad^c d3 :|

